TeamBeyond/Assets/OnlineLUTCreator.CUBE
#Generated by wwww.onlinelutcreator.com 
LUT_3D_SIZE 8 
DOMAIN_MIN 0.000000 0.000000 0.000000
DOMAIN_MAX 0.903226 0.903226 0.903226
0.000000 0.000000 0.000000
0.000000 0.000000 0.000000
0.000000 0.000000 0.000000
0.000000 0.000000 0.000000
0.015686 0.000000 0.000000
0.129412 0.015686 0.000000
0.345098 0.023529 0.000000
0.647059 0.000000 0.000000
0.000000 0.000000 0.000000
0.000000 0.000000 0.000000
0.000000 0.000000 0.000000
0.000000 0.000000 0.000000
0.047059 0.011765 0.000000
0.200000 0.043137 0.000000
0.427451 0.070588 0.000000
0.709804 0.098039 0.000000
0.000000 0.000000 0.000000
0.000000 0.000000 0.000000
0.000000 0.000000 0.000000
0.003922 0.003922 0.000000
0.047059 0.023529 0.000000
0.176471 0.066667 0.000000
0.396078 0.125490 0.000000
0.686275 0.188235 0.000000
0.003922 0.054902 0.000000
0.011765 0.039216 0.000000
0.031373 0.047059 0.000000
0.086275 0.070588 0.000000
0.176471 0.105882 0.000000
0.329412 0.172549 0.000000
0.552941 0.247059 0.000000
0.815686 0.313725 0.000000
0.000000 0.133333 0.000000
0.000000 0.133333 0.000000
0.031373 0.145098 0.000000
0.117647 0.168627 0.000000
0.231373 0.196078 0.000000
0.376471 0.239216 0.000000
0.584314 0.333333 0.000000
0.866667 0.431373 0.000000
0.000000 0.494118 0.000000
0.000000 0.439216 0.000000
0.000000 0.450980 0.000000
0.149020 0.474510 0.000000
0.392157 0.498039 0.000000
0.596078 0.513725 0.000000
0.811765 0.545098 0.000000
1.000000 0.627451 0.000000
0.000000 0.596078 0.000000
0.000000 0.600000 0.000000
0.000000 0.619608 0.000000
0.000000 0.643137 0.000000
0.321569 0.686275 0.000000
0.607843 0.737255 0.000000
0.886275 0.776471 0.000000
1.000000 0.776471 0.000000
0.000000 1.000000 0.000000
0.000000 1.000000 0.000000
0.000000 1.000000 0.000000
0.000000 1.000000 0.000000
0.000000 1.000000 0.000000
0.600000 1.000000 0.000000
0.894118 1.000000 0.000000
1.000000 0.976471 0.000000
0.000000 0.000000 0.000000
0.000000 0.000000 0.000000
0.000000 0.000000 0.000000
0.003922 0.000000 0.000000
0.019608 0.000000 0.000000
0.133333 0.019608 0.000000
0.352941 0.035294 0.000000
0.650980 0.015686 0.000000
0.000000 0.000000 0.000000
0.000000 0.000000 0.000000
0.000000 0.000000 0.000000
0.003922 0.003922 0.000000
0.054902 0.011765 0.000000
0.203922 0.043137 0.000000
0.431373 0.078431 0.000000
0.713725 0.105882 0.000000
0.000000 0.000000 0.000000
0.000000 0.000000 0.000000
0.000000 0.000000 0.000000
0.003922 0.000000 0.000000
0.050980 0.019608 0.000000
0.184314 0.062745 0.000000
0.403922 0.129412 0.000000
0.690196 0.192157 0.000000
0.000000 0.062745 0.000000
0.003922 0.043137 0.000000
0.027451 0.050980 0.000000
0.086275 0.070588 0.000000
0.180392 0.105882 0.000000
0.341176 0.164706 0.000000
0.564706 0.235294 0.000000
0.819608 0.313725 0.000000
0.000000 0.141176 0.000000
0.000000 0.141176 0.000000
0.003922 0.152941 0.000000
0.105882 0.168627 0.000000
0.235294 0.200000 0.000000
0.384314 0.235294 0.000000
0.600000 0.325490 0.000000
0.874510 0.431373 0.000000
0.000000 0.498039 0.000000
0.000000 0.450980 0.000000
0.000000 0.462745 0.000000
0.074510 0.478431 0.000000
0.380392 0.501961 0.000000
0.600000 0.513725 0.000000
0.819608 0.541176 0.000000
1.000000 0.619608 0.000000
0.000000 0.607843 0.000000
0.000000 0.615686 0.000000
0.000000 0.631373 0.000000
0.000000 0.654902 0.000000
0.290196 0.694118 0.000000
0.603922 0.745098 0.000000
0.890196 0.780392 0.000000
1.000000 0.780392 0.000000
0.000000 1.000000 0.000000
0.000000 1.000000 0.000000
0.000000 1.000000 0.000000
0.000000 1.000000 0.000000
0.000000 1.000000 0.000000
0.592157 1.000000 0.000000
0.890196 1.000000 0.000000
1.000000 0.980392 0.000000
0.000000 0.000000 0.000000
0.000000 0.000000 0.000000
0.000000 0.000000 0.000000
0.000000 0.000000 0.000000
0.031373 0.000000 0.003922
0.180392 0.000000 0.000000
0.403922 0.000000 0.000000
0.678431 0.000000 0.000000
0.000000 0.000000 0.000000
0.000000 0.000000 0.000000
0.000000 0.000000 0.000000
0.007843 0.000000 0.000000
0.094118 0.000000 0.000000
0.258824 0.000000 0.000000
0.486275 0.000000 0.000000
0.741176 0.000000 0.000000
0.000000 0.000000 0.000000
0.000000 0.000000 0.000000
0.000000 0.000000 0.000000
0.007843 0.000000 0.000000
0.074510 0.011765 0.000000
0.223529 0.019608 0.000000
0.462745 0.007843 0.000000
0.741176 0.070588 0.000000
0.000000 0.074510 0.007843
0.000000 0.062745 0.000000
0.000000 0.062745 0.000000
0.094118 0.074510 0.000000
0.203922 0.098039 0.000000
0.372549 0.137255 0.000000
0.603922 0.176471 0.000000
0.870588 0.239216 0.000000
0.000000 0.156863 0.000000
0.000000 0.164706 0.000000
0.000000 0.168627 0.000000
0.078431 0.184314 0.000000
0.243137 0.203922 0.000000
0.407843 0.235294 0.000000
0.631373 0.313725 0.000000
0.921569 0.396078 0.000000
0.000000 0.513725 0.000000
0.000000 0.474510 0.000000
0.000000 0.482353 0.000000
0.000000 0.498039 0.000000
0.349020 0.517647 0.000000
0.611765 0.521569 0.000000
0.839216 0.537255 0.000000
1.000000 0.607843 0.000000
0.000000 0.635294 0.000000
0.000000 0.643137 0.000000
0.000000 0.654902 0.000000
0.000000 0.678431 0.000000
0.172549 0.713725 0.000000
0.596078 0.756863 0.000000
0.901961 0.792157 0.000000
1.000000 0.780392 0.000000
0.000000 1.000000 0.000000
0.000000 1.000000 0.000000
0.000000 1.000000 0.000000
0.000000 1.000000 0.000000
0.000000 1.000000 0.000000
0.568627 1.000000 0.000000
0.886275 1.000000 0.000000
1.000000 0.976471 0.000000
0.000000 0.000000 0.003922
0.000000 0.000000 0.003922
0.000000 0.000000 0.000000
0.003922 0.000000 0.003922
0.027451 0.000000 0.015686
0.168627 0.000000 0.058824
0.435294 0.000000 0.050980
0.745098 0.000000 0.000000
0.000000 0.007843 0.023529
0.000000 0.000000 0.023529
0.003922 0.000000 0.015686
0.023529 0.000000 0.019608
0.082353 0.000000 0.043137
0.262745 0.000000 0.070588
0.521569 0.000000 0.023529
0.807843 0.000000 0.000000
0.000000 0.003922 0.007843
0.000000 0.003922 0.011765
0.000000 0.000000 0.015686
0.019608 0.000000 0.015686
0.098039 0.000000 0.031373
0.266667 0.000000 0.011765
0.521569 0.000000 0.000000
0.815686 0.000000 0.000000
0.000000 0.070588 0.074510
0.000000 0.058824 0.062745
0.000000 0.062745 0.062745
0.086275 0.062745 0.043137
0.223529 0.074510 0.039216
0.411765 0.050980 0.011765
0.650980 0.000000 0.000000
0.929412 0.000000 0.000000
0.000000 0.184314 0.047059
0.000000 0.184314 0.027451
0.000000 0.188235 0.000000
0.000000 0.203922 0.000000
0.258824 0.211765 0.000000
0.443137 0.227451 0.000000
0.670588 0.294118 0.000000
0.972549 0.341176 0.000000
0.000000 0.525490 0.000000
0.000000 0.486275 0.000000
0.000000 0.494118 0.000000
0.000000 0.509804 0.000000
0.305882 0.529412 0.000000
0.623529 0.525490 0.000000
0.866667 0.541176 0.000000
1.000000 0.607843 0.000000
0.000000 0.678431 0.000000
0.000000 0.678431 0.000000
0.000000 0.690196 0.000000
0.000000 0.709804 0.000000
0.000000 0.745098 0.000000
0.584314 0.784314 0.000000
0.917647 0.803922 0.000000
1.000000 0.784314 0.000000
0.000000 1.000000 0.000000
0.000000 1.000000 0.000000
0.000000 1.000000 0.000000
0.000000 1.000000 0.000000
0.000000 1.000000 0.000000
0.533333 1.000000 0.000000
0.874510 1.000000 0.000000
1.000000 0.980392 0.000000
0.000000 0.003922 0.086275
0.000000 0.000000 0.086275
0.027451 0.000000 0.074510
0.062745 0.000000 0.082353
0.105882 0.000000 0.101961
0.200000 0.000000 0.137255
0.435294 0.000000 0.200000
0.749020 0.000000 0.211765
0.000000 0.035294 0.156863
0.000000 0.003922 0.149020
0.019608 0.000000 0.137255
0.094118 0.000000 0.137255
0.164706 0.000000 0.156863
0.274510 0.000000 0.176471
0.517647 0.000000 0.215686
0.815686 0.000000 0.192157
0.000000 0.043137 0.109804
0.000000 0.035294 0.113725
0.000000 0.000000 0.129412
0.058824 0.000000 0.129412
0.152941 0.000000 0.145098
0.286275 0.000000 0.156863
0.545098 0.000000 0.160784
0.847059 0.000000 0.129412
0.000000 0.137255 0.227451
0.000000 0.117647 0.207843
0.000000 0.098039 0.215686
0.000000 0.031373 0.215686
0.254902 0.000000 0.219608
0.431373 0.000000 0.192157
0.666667 0.000000 0.180392
0.960784 0.000000 0.137255
0.000000 0.180392 0.192157
0.000000 0.180392 0.192157
0.000000 0.188235 0.192157
0.000000 0.203922 0.196078
0.258824 0.211765 0.172549
0.458824 0.239216 0.192157
0.701961 0.250980 0.176471
1.000000 0.231373 0.109804
0.000000 0.541176 0.317647
0.000000 0.509804 0.282353
0.000000 0.509804 0.250980
0.000000 0.513725 0.192157
0.207843 0.537255 0.145098
0.635294 0.533333 0.137255
0.874510 0.549020 0.098039
1.000000 0.607843 0.133333
0.000000 0.709804 0.125490
0.000000 0.713725 0.098039
0.000000 0.729412 0.000000
0.000000 0.752941 0.000000
0.000000 0.784314 0.000000
0.549020 0.819608 0.000000
0.937255 0.819608 0.000000
1.000000 0.788235 0.000000
0.000000 1.000000 0.278431
0.000000 1.000000 0.200000
0.000000 1.000000 0.164706
0.000000 1.000000 0.117647
0.000000 1.000000 0.007843
0.482353 1.000000 0.000000
0.858824 1.000000 0.078431
1.000000 0.980392 0.192157
0.000000 0.015686 0.266667
0.000000 0.000000 0.274510
0.000000 0.000000 0.270588
0.129412 0.000000 0.274510
0.239216 0.000000 0.290196
0.341176 0.000000 0.317647
0.494118 0.000000 0.352941
0.752941 0.000000 0.403922
0.000000 0.058824 0.352941
0.000000 0.015686 0.345098
0.000000 0.000000 0.341176
0.145098 0.000000 0.337255
0.282353 0.000000 0.352941
0.396078 0.000000 0.364706
0.549020 0.000000 0.380392
0.811765 0.000000 0.411765
0.000000 0.098039 0.294118
0.000000 0.074510 0.305882
0.000000 0.007843 0.329412
0.000000 0.000000 0.329412
0.235294 0.000000 0.345098
0.392157 0.000000 0.364706
0.580392 0.000000 0.372549
0.854902 0.000000 0.380392
0.000000 0.207843 0.423529
0.000000 0.180392 0.403922
0.000000 0.133333 0.419608
0.000000 0.027451 0.427451
0.215686 0.000000 0.439216
0.490196 0.000000 0.431373
0.694118 0.000000 0.407843
0.972549 0.000000 0.400000
0.000000 0.262745 0.388235
0.000000 0.262745 0.392157
0.000000 0.262745 0.403922
0.000000 0.254902 0.419608
0.098039 0.172549 0.419608
0.517647 0.137255 0.427451
0.741176 0.129412 0.411765
1.000000 0.000000 0.396078
0.000000 0.513725 0.509804
0.000000 0.490196 0.486275
0.000000 0.498039 0.486275
0.000000 0.513725 0.490196
0.254902 0.525490 0.486275
0.600000 0.517647 0.450980
0.866667 0.552941 0.462745
1.000000 0.552941 0.439216
0.000000 0.749020 0.501961
0.000000 0.752941 0.498039
0.000000 0.772549 0.494118
0.000000 0.796078 0.474510
0.000000 0.811765 0.411765
0.454902 0.839216 0.364706
0.941176 0.827451 0.380392
1.000000 0.800000 0.392157
0.000000 1.000000 0.568627
0.000000 1.000000 0.529412
0.000000 1.000000 0.521569
0.000000 1.000000 0.509804
0.003922 1.000000 0.494118
0.501961 1.000000 0.462745
0.839216 1.000000 0.454902
1.000000 0.980392 0.482353
0.000000 0.047059 0.537255
0.000000 0.003922 0.541176
0.000000 0.000000 0.533333
0.137255 0.000000 0.537255
0.360784 0.000000 0.545098
0.533333 0.000000 0.560784
0.666667 0.000000 0.584314
0.847059 0.000000 0.603922
0.000000 0.109804 0.607843
0.000000 0.043137 0.596078
0.000000 0.000000 0.592157
0.109804 0.000000 0.580392
0.380392 0.000000 0.580392
0.564706 0.000000 0.603922
0.713725 0.000000 0.619608
0.909804 0.000000 0.635294
0.000000 0.180392 0.556863
0.000000 0.133333 0.564706
0.000000 0.027451 0.580392
0.000000 0.000000 0.580392
0.309804 0.000000 0.580392
0.529412 0.000000 0.607843
0.717647 0.000000 0.623529
0.917647 0.000000 0.623529
0.000000 0.301961 0.662745
0.000000 0.258824 0.643137
0.000000 0.180392 0.658824
0.000000 0.031373 0.662745
0.000000 0.000000 0.662745
0.533333 0.000000 0.682353
0.807843 0.000000 0.686275
1.000000 0.000000 0.662745
0.000000 0.376471 0.643137
0.000000 0.364706 0.647059
0.000000 0.333333 0.654902
0.000000 0.270588 0.666667
0.000000 0.149020 0.678431
0.498039 0.000000 0.694118
0.843137 0.000000 0.698039
1.000000 0.000000 0.658824
0.000000 0.635294 0.764706
0.000000 0.607843 0.737255
0.000000 0.607843 0.741176
0.000000 0.603922 0.745098
0.000000 0.580392 0.752941
0.447059 0.462745 0.752941
0.929412 0.439216 0.749020
1.000000 0.498039 0.698039
0.000000 0.772549 0.733333
0.000000 0.776471 0.733333
0.000000 0.784314 0.737255
0.000000 0.796078 0.745098
0.000000 0.819608 0.756863
0.552941 0.835294 0.756863
0.901961 0.831373 0.729412
1.000000 0.850980 0.756863
0.000000 1.000000 0.835294
0.000000 1.000000 0.815686
0.000000 1.000000 0.811765
0.000000 1.000000 0.803922
0.505882 1.000000 0.803922
0.745098 1.000000 0.803922
0.878431 1.000000 0.792157
1.000000 0.984314 0.796078
0.000000 0.141176 0.862745
0.000000 0.062745 0.866667
0.000000 0.000000 0.870588
0.000000 0.000000 0.870588
0.423529 0.000000 0.870588
0.678431 0.000000 0.886275
0.894118 0.000000 0.909804
1.000000 0.000000 0.925490
0.000000 0.168627 0.921569
0.000000 0.090196 0.901961
0.000000 0.000000 0.905882
0.000000 0.000000 0.909804
0.411765 0.000000 0.917647
0.694118 0.000000 0.933333
0.913725 0.000000 0.956863
1.000000 0.000000 0.960784
0.000000 0.262745 0.886275
0.000000 0.227451 0.890196
0.000000 0.062745 0.898039
0.000000 0.000000 0.898039
0.321569 0.000000 0.898039
0.650980 0.000000 0.909804
0.862745 0.000000 0.949020
1.000000 0.000000 0.949020
0.000000 0.423529 0.964706
0.000000 0.384314 0.941176
0.000000 0.243137 0.949020
0.000000 0.047059 0.941176
0.000000 0.000000 0.960784
0.470588 0.000000 0.992157
0.839216 0.000000 1.000000
1.000000 0.000000 0.992157
0.000000 0.501961 0.964706
0.000000 0.482353 0.968627
0.000000 0.423529 0.972549
0.000000 0.278431 0.960784
0.000000 0.133333 0.949020
0.000000 0.000000 0.980392
0.807843 0.000000 1.000000
1.000000 0.000000 0.992157
0.000000 0.678431 1.000000
0.000000 0.658824 1.000000
0.000000 0.643137 1.000000
0.000000 0.611765 1.000000
0.000000 0.541176 1.000000
0.000000 0.419608 0.988235
0.803922 0.345098 1.000000
1.000000 0.360784 1.000000
0.000000 0.843137 1.000000
0.000000 0.847059 1.000000
0.000000 0.847059 1.000000
0.000000 0.843137 1.000000
0.000000 0.835294 1.000000
0.231373 0.827451 0.992157
0.784314 0.796078 0.972549
1.000000 0.819608 0.968627
0.000000 1.000000 1.000000
0.000000 1.000000 1.000000
0.000000 1.000000 0.996078
0.000000 1.000000 0.992157
0.549020 0.996078 0.984314
0.792157 0.992157 0.980392
0.937255 0.988235 0.980392
0.992157 0.984314 0.976471
