TeamBeyond/Assets/OnlineLUTCreator.CUBE
#Generated by wwww.onlinelutcreator.com 
LUT_3D_SIZE 5 
DOMAIN_MIN 0.000000 0.000000 0.000000
DOMAIN_MAX 0.903226 0.903226 0.903226
0.000000 0.000000 0.000000
0.000000 0.000000 0.000000
0.003922 0.000000 0.000000
0.172549 0.019608 0.000000
0.647059 0.000000 0.000000
0.000000 0.000000 0.000000
0.000000 0.000000 0.000000
0.043137 0.019608 0.000000
0.309804 0.101961 0.000000
0.784314 0.196078 0.000000
0.000000 0.160784 0.000000
0.031373 0.137255 0.000000
0.207843 0.176471 0.000000
0.458824 0.258824 0.000000
0.898039 0.392157 0.000000
0.000000 0.572549 0.000000
0.000000 0.533333 0.000000
0.274510 0.560784 0.000000
0.698039 0.603922 0.000000
1.000000 0.670588 0.000000
0.000000 1.000000 0.000000
0.000000 1.000000 0.000000
0.000000 1.000000 0.000000
0.682353 1.000000 0.000000
1.000000 0.976471 0.000000
0.000000 0.000000 0.000000
0.000000 0.000000 0.000000
0.003922 0.000000 0.000000
0.211765 0.000000 0.000000
0.662745 0.000000 0.000000
0.000000 0.000000 0.000000
0.000000 0.000000 0.000000
0.070588 0.011765 0.000000
0.360784 0.019608 0.000000
0.819608 0.137255 0.000000
0.000000 0.176471 0.000000
0.000000 0.156863 0.000000
0.215686 0.180392 0.000000
0.494118 0.243137 0.000000
0.929412 0.352941 0.000000
0.000000 0.584314 0.000000
0.000000 0.552941 0.000000
0.152941 0.576471 0.000000
0.709804 0.611765 0.000000
1.000000 0.662745 0.000000
0.000000 1.000000 0.000000
0.000000 1.000000 0.000000
0.000000 1.000000 0.000000
0.666667 1.000000 0.000000
1.000000 0.980392 0.000000
0.000000 0.003922 0.027451
0.003922 0.000000 0.019608
0.039216 0.000000 0.031373
0.223529 0.000000 0.105882
0.752941 0.000000 0.090196
0.000000 0.043137 0.113725
0.000000 0.000000 0.117647
0.121569 0.000000 0.113725
0.411765 0.000000 0.121569
0.929412 0.000000 0.019608
0.000000 0.172549 0.184314
0.000000 0.160784 0.164706
0.207843 0.168627 0.133333
0.541176 0.176471 0.117647
1.000000 0.074510 0.000000
0.000000 0.611765 0.113725
0.000000 0.576471 0.000000
0.000000 0.607843 0.000000
0.725490 0.619608 0.000000
1.000000 0.662745 0.000000
0.000000 1.000000 0.000000
0.000000 1.000000 0.000000
0.000000 1.000000 0.000000
0.611765 1.000000 0.000000
1.000000 0.980392 0.000000
0.000000 0.023529 0.333333
0.000000 0.000000 0.333333
0.207843 0.000000 0.341176
0.419608 0.000000 0.384314
0.760784 0.000000 0.447059
0.000000 0.133333 0.462745
0.000000 0.011765 0.462745
0.203922 0.000000 0.458824
0.541176 0.000000 0.490196
0.956863 0.000000 0.498039
0.000000 0.294118 0.525490
0.000000 0.247059 0.517647
0.000000 0.098039 0.513725
0.615686 0.000000 0.521569
1.000000 0.000000 0.494118
0.000000 0.607843 0.584314
0.000000 0.588235 0.560784
0.000000 0.607843 0.564706
0.705882 0.611765 0.521569
1.000000 0.650980 0.529412
0.000000 1.000000 0.639216
0.000000 1.000000 0.603922
0.000000 1.000000 0.580392
0.623529 1.000000 0.545098
1.000000 0.980392 0.556863
0.000000 0.141176 0.862745
0.000000 0.000000 0.870588
0.250980 0.000000 0.866667
0.733333 0.000000 0.894118
1.000000 0.000000 0.925490
0.000000 0.254902 0.968627
0.000000 0.070588 0.949020
0.000000 0.000000 0.964706
0.764706 0.000000 0.988235
1.000000 0.000000 1.000000
0.000000 0.466667 1.000000
0.000000 0.368627 0.992157
0.000000 0.090196 0.968627
0.466667 0.000000 1.000000
1.000000 0.000000 1.000000
0.000000 0.733333 1.000000
0.000000 0.713725 1.000000
0.000000 0.674510 1.000000
0.313725 0.513725 0.992157
1.000000 0.525490 1.000000
0.000000 1.000000 1.000000
0.000000 1.000000 0.992157
0.372549 1.000000 0.988235
0.839216 0.988235 0.980392
0.992157 0.984314 0.976471
